!!!!SEGMENT: pl-wnifc--493-n--001-002_oginski-michal-kleofas--16-polonaises-2-polonaise-in-f.krn
!!!cenid: 18xx:3861
!!!COM: Ogiński, Michał Kleofas
!!!COM-rismID: pe30002379
!!!CDT: 1765/09/25-1833/10/15
!!!CNT:
!!!GTL: 16 Polonaises
!!!OTL: 2. [Polonaise in f]
!!!OMV: 002
!!!PDT: 1864
!!!AGN: Secular; Polonaise
!!!YEC: Copyright 2022 Narodowy Instytut Fryderyka Chopina (https://polishscores.org)
!!!YEM: License CC-BY-4.0 (https://creativecommons.org/licenses/by/4.0)
!!!SMS-siglum: PL-Wnifc
!!!SMS-shelfmark: 493/n
!!!SMS-shelfwork: 001-002 G
!!!SMS-variant:
!!!SMS-altvar:
!!!NIFC-rismSourceID: 1001157350
!!!NIFC-rismChildID: 1001157353
!!!NIFC-islandoraID: nifc:212371
!!!URL-pdf-islandora: https://repozytorium.nifc.pl/islandora/object/nifc%3A212371/datastream/PDF/view
!!!URL-scan: https://polish.musicsources.pl/pl/lokalizacje/galeria/druki-muzyczne/16843 @EN{Scan on Polish Music Sources Website} @PL{Skany w portalu Dziedzictwo Muzyki Polskiej w otwartym dostępie}
!!!IIIF:
!!!ONB-nifc: UWAGA: w zbiorze znajduje się 14 Polonezów z Triami, pliki są numerowane jak w źródle.
!!!OMD: Poco Adagio.
!!!OMD-mod: Poco adagio
!!!AIN: 1 piano
!!!key: f
**kern	**kern	**dynam
*part1	*part1	*
*staff2	*staff1	*
*>[A,B,C,C,D,D,A]	*>[A,B,C,C,D,D,A]	*
*>A	*>A	*
*I"Piano.	*I"Piano.	*
*I'	*I'	*
*Ipiano	*Ipiano	*
*ICklav	*ICklav	*
*IGsolo	*IGsolo	*
*mI"Pianoforte	*mI"Pianoforte	*
*mI'pf	*mI'pf	*
*clefF4	*clefG2	*
*k[b-e-a-d-]	*k[b-e-a-d-]	*
*f:	*f:	*
*M3/4	*M3/4	*
=1	=1	=1
(8A-L 8F\	2.r	p
8cJ 8A-\)	.	.
8d-L 8B-'\	.	.
8cJ 8A-'\	.	.
8B-L 8G'\	.	.
8A-J 8F'\	.	.
=2	=2	=2
2.c 2.B- 2.G 2.En\	16r	f
.	(16een\LL	>
.	16gg\	.
.	16ff\JJ	.
.	16ee\LL	.
.	16dd-\	.
.	16cc\	.
.	16dd-\JJ	.
.	16cc\LL	.
.	16b-\	.
.	16a-\	.
.	16g\JJ)	]]
=3	=3	=3
8FL 8FF/	4ff 4cc 4a- 4f\	f
*clefG2	*	*
8a- 8f'/	.	p
8b- 8g'/	4r	.
8cc 8a-'/	.	.
8b- 8g'/	4r	.
8a-J 8f'/	.	.
!!LO:LB:g=original
=4	=4	=4
!	!	!LO:DY:rj
2cc 2b- 2g 2en/	16ccc\LL	f >
.	(16bbn\	.
.	16bb-X\)	.
.	(16aa-\JJ	.
.	16gg\LL)	.
.	(16ff\	.
.	16een\)	.
.	(16dd-X\JJ	.
4r	16cc\LL)	.
.	(16b-\	.
.	16a-\)	.
.	16g\JJ	]]
=5	=5	=5
8.f\L	8.a-/L	.
*clefF4	*	*
16d-K 16D-\	16a-K 16f/	p
8.c 8.C\	8.a- 8.f/	.
16cK 16C\	16a-K 16f/	.
8.Bn 8.BBn\	8.a- 8.f/	.
16BJk 16BB\	16a-Jk 16f/	.
=6	=6	=6
4c 4C\	8.gL 8.en/	.
.	16cc/Jk	.
8r	8bn/L	.
8d-L 8D-\	8b 8a- 8f/	f
8d- 8D-\	8b 8a- 8f/	.
8d-J 8D-\	8bJ 8g 8f/	.
!!LO:LB:g=original
=7	=7	=7
4c 4C\	8ccL 8g 8en\	.
.	(16gg^\L	.
.	64ff\LL	.
.	64een\	.
.	64dd-\	.
.	64cc\JJJJ	.
8r	8bn'>/L)	.
8d-L 8D-\	8b 8a- 8f/	.
8d- 8D-\	8b 8a- 8f/	.
8d-J 8D-\	8bJ 8g 8f/	.
=8	=8	=8
4c 4C\	4cc: 4g: 4en:/	.
!	!	!LO:MO:null:mod=p
4r	8ccL 8c/	.
!	!	!LO:MO:null:mod=.
.	8dd- 8d-/	p
4r	8ddn 8dn/	.
.	8ee-J 8e-X/	.
=9	=9	=9
!	!LO:TX:b:i:t=dolce.:mod=dolce	!
8A-L 8AA-\	[>4a-/	.
8e-J 8c 8A-\	.	.
8e-L 8c 8A-\	8a-\L]	.
8e- 8c 8A-\	16ff\L	.
.	(16ee-\JJ	.
8e- 8c 8A-\	16dd-\LL)	.
.	(16cc\	.
8e-J 8c 8A-\	16b-\)	.
.	16a-\JJ	.
!!LO:LB:g=original
=10	=10	=10
8GL 8GG\	(16an\LL	.
.	16b-\	.
8e-J 8d- 8B- 8G\	16cc\	.
.	16b-\JJ)	.
.	(32qqcc/LLL	.
.	32qqb-/	.
.	32qqa/JJJ	.
8e-L 8d- 8B- 8G\	8b-\L)	.
8e- 8d- 8B- 8G\	(16gg\L	.
.	16ff\JJ	.
8e- 8d- 8B- 8G\	16ee-\LL	.
.	16dd-\	.
8e-J 8d- 8B- 8G\	16cc\	.
.	16b-\JJ)	.
=11	=11	=11
8e-L 8c 8A-\	(16a-/LL	.
.	16g/)	.
8e-J 8c 8A-\	(16b-/	.
.	16a-/JJ)	.
8cL 8A- 8F'\	(16cc\LL	.
.	16b-\)	.
8c 8A- 8F'\	(16dd-\	.
.	16cc\JJ)	.
8c 8A- 8F'\	(16b-/LL	.
.	16a-/	.
8cJ 8A- 8F'\	16g/	.
.	16f/JJ)	.
=12	=12	=12
8cL 8C\	8en/	<
8cJ 8B- 8G 8En\	4cc\	.
8cL 8B- 8G 8E'\	.	.
8c 8B- 8G 8E'\	8cc\L	.
8c 8B- 8G 8E'\	8.dd-\	.
8cJ 8B- 8G 8E'\	.	.
.	16cc\Jk	[
!!LO:LB:g=original
=13	=13	=13
8c 8A- 8F\	8aa- 8ff 8cc\	f
4f 4F\	4cc 4a-^<\	.
8fL 8F\	8bnL 8a-/	p
8f 8F\	8b 8a-/	.
8fJ 8F\	8bJ 8a-/	.
=14	=14	=14
[4e-X [4E-X\	[4cc [4g/	f
8e-]L 8E-\]	8cc]L 8g/]	.
8e- 8E-\	8an 8f/	p
8e- 8E-\	8a 8f/	.
8e-J 8E-\	8aJ 8f/	.
=15	=15	=15
[4d- [4D-\	[4b- [4f/	f
8d-]L 8D-\]	8b-]L 8f/]	.
!	!LO:SIC:s=8bn 8a- 8f/	!
8d- 8D-\	8bnJ 8a- 8f/	p
!	!LO:SIC:s=8cc 8a- 8f/	!
8c 8C\	8ccL 8a- 8f/	.
8cJ 8C\	8ccJ 8a- 8f/	.
=16	=16	=16
4.c 4.C\	(16ccLL 16a-/	.
.	16a- 16f/	.
.	16b- 16g/	.
.	16gJJ 16B-/)	.
.	(4g 4en 4B-/	.
8C/	.	.
8F\	8f 8A-/)	.
!	!LO:TX:b:Bi:t=Fine.:mod=	!
8r	8r	.
!!LO:TX:a:B:rj:t=:mod=Fine
!!LO:PB:g=original
=17||	=17||	=17||
*>B	*>B	*
8.CL 8.CC/	8.ccL 8.c/	f
16D-Jk 16DD-/	16dd-Jk 16d-/	.
[2C [2CC/	8cc 8c/	.
!	!	!LO:MO:null:mod=p
.	(8cccL 8cc\	.
!	!	!LO:MO:null:mod=.
.	8bbn 8ddn\	p
.	8bb-XJ 8een\	.
=18	=18	=18
4C_ 4CC/_	8.aa-L 8.ff\)	.
.	16ggJk 16een\	.
8C]L 8CC/]	8aa-L 8ff\	.
8C 8CC/	8bbn 8aa- 8ff 8ddn\	f
8C 8CC/	8bb 8aa- 8ff 8dd\	.
8CJ 8CC/	8bbJ 8aa- 8ff 8dd\	.
=19	=19	=19
8.CL 8.CC/	8.cccL 8.gg 8.een 8.cc\	.
16BBnJk 16BBBn/	16bbnJk 16bn\	.
4C 4CC/	8ccc 8cc\	.
.	(>8ccL 8c/	>
4r	8b 8dn/	.
.	8b-XJ 8en/	.
!!LO:LB:g=original
=20	=20	=20
4r	8.a-L 8.f/	.
.	16gJk 16en/)	]
8r	8a-L 8f/	.
8A-L 8F 8Dn 8BBn\	8a- 8f 8dn/	f
8A- 8F 8D 8BB\	8a- 8f 8d/	.
8A-J 8F 8D 8BB\	8a-J 8f 8d/	.
=21	=21	=21
8.GL 8.En 8.C/	8.gL 8.en/	.
16CJk 16CC/	16ccJk 16c/	.
8.EL 8.EEn/	8.eenL 8.e/	.
16EJk 16EE/	16eeJk 16e/	.
8.GL 8.GG/	8.ggL 8.g\	.
16GJk 16GG/	16ggJk 16g\	.
=22	=22	=22
8B-L 8BB-\	8bb-L 8b-\	>
8d- 8D-\	8ddd- 8dd-\	.
8B- 8BB-\	8bb- 8b-\	.
8A- 8AA-\	8aa- 8a-\	.
8G 8GG\	8gg 8g\	.
8FJ 8FF\	8ffJ 8f\	]
=23	=23	=23
8EnL 8EEn/	8eenL 8en/	.
8D-X 8DD-X/	8dd-X 8d-X/	.
8C 8CC/	8cc 8c/	.
8BB- 8BBB-/	8b- 8B-/	.
8AA- 8AAA-/	8a- 8A-/	.
8GGJ 8GGG/	8gJ 8G/	.
!!LO:LB:g=original
=24	=24	=24
8FF 8FFF/	8f 8F/	f
!	!	!LO:MO:null:mod=p
8cL 8A-'\	8r	.
!	!	!LO:MO:null:mod=.
8d- 8B-'\	4r	p
8c 8A-'\	.	.
8B- 8G'\	4r	.
8A-J 8F'\	.	.
=25	=25	=25
2.c 2.B- 2.G 2.En\	16r	f
.	(16een\LL	>
.	16gg\	.
.	16ff\JJ	.
.	16ee\LL	.
.	16dd-X\	.
.	16cc\	.
.	16dd-\JJ	.
.	16cc\LL	.
.	16b-\	.
.	16a-\	.
.	16g\JJ)	]]
=26	=26	=26
8FL 8FF/	4ff 4cc 4a- 4f\	f
*clefG2	*	*
8a- 8f'/	.	p
8b- 8g'/	4r	.
8cc 8a-'/	.	.
8b- 8g'/	4r	.
8a-J 8f'/	.	.
!!LO:LB:g=original
=27	=27	=27
!	!	!LO:DY:rj
2cc 2b- 2g 2en/	(16ccc\LL	f >
.	16bbn\	.
.	16bb-X\	.
.	16aa-\JJ	.
.	16gg\LL	.
.	16ff\	.
.	16een\	.
.	16dd-X\JJ	.
4r	16cc\LL	.
.	16b-\	.
.	16a-\	.
.	16g\JJ)	]]
*clefF4	*	*
=28	=28	=28
8f\L	8a-/L	p
8d-'\	8a- 8f'/	.
8c'\	8a- 8f'/	.
8c'\	8a- 8f'/	.
8Bn'\	8a- 8f'/	.
8B'\J	8a-J 8f'/	.
=29	=29	=29
4c\	(16cc/LL	.
.	16b-/	.
.	16g/	.
.	16en/JJ)	.
8r	(4g (4B-/	.
8C/	.	.
8F\	8f 8A-/))	.
8r	8r	.
!!LO:LB:g=original
!LO:MO:mod==30!|:	!LO:MO:mod==30!|:	!LO:MO:mod==30!|:
=30||	=30||	=30||
!!!OMD: Maggiore.
!!!OMD-mod: Maggiore
*>C	*>C	*
*k[b-]	*k[b-]	*
*M3/4	*M3/4	*
*^	*	*
!	!	!	!LO:MO:mod=!null:null
!	!	!LO:TX:a:t=Trio.	!LO:DY:t=p dolce.
8FL 8FF/	2F\	4.a/	p
!LO:TX:i:t=dolce	!	!	!
8c 8A/	.	.	.
8c 8A/	.	.	.
8cJ 8A/	.	8asSsS/	.
8D/L	4D\	(16b-/LL	.
.	.	16a/)	.
8AJ 8F/	.	16g#X'/	.
.	.	16a'/JJ	.
=31	=31	=31	=31
8BB-/L	2BB-\	(8a/L	.
8G 8D/	.	8.gn/J)	.
8G 8D/	.	.	.
.	.	(16cc#XsSsS\LL	.
8GJ 8D/	.	16ee\	.
.	.	16dd\JJ	.
8BB-/L	4BB-\	16ccn\LL	.
.	.	16b-X\	.
8GJ 8D/	.	16a\	.
.	.	16g\JJ)	.
*v	*v	*	*
!!LO:PB:g=original
=32	=32	=32
(16C\LL	(8e/L	<
16c\	.	.
16D\	8f/	.
16c\JJ	.	.
16D#X\LL	8f#X/	.
16c\	.	.
16E\	8g/	.
16c\JJ	.	.
16F\LL	8a-X/	.
16c\	.	.
16F#X\	8an/J)	.
16c\JJ)	.	.
=33	=33	=33
(16G\LL	(8b-/L	.
16c\	.	.
16G#X\	8bn/	.
16c\JJ	.	.
16A\LL	8cc/	.
16c\	.	.
16F\	8a/	.
16c\JJ	.	.
16Gn\LL	8b-X/	.
16c\	.	.
16E\	8g/J)	[[
16c\JJ)	.	.
=34	=34	=34
*^	*	*
8F/L	2F\	4.a^>/	.
8c 8A/	.	.	.
8c 8A/	.	.	.
8cJ 8A/	.	8asSsS/	.
8D/L	4D\	(16b-/LL	.
.	.	16a/)	.
8AJ 8F/	.	16g#X'/	.
.	.	16a'/JJ	.
!!LO:LB:g=original
=35	=35	=35	=35
8BB-/L	2BB-\	(16a\LL	.
.	.	16gn\	.
8G 8D/	.	16ee\	.
.	.	16dd\JJ	.
8G 8D/	.	16cc\LL	.
.	.	16b-X\	.
8GJ 8D/	.	16a\	.
.	.	16g\JJ	.
8BB-/L	4BB-\	16f#X/LL	.
.	.	16g/	.
8GJ 8D/	.	16b-/	.
.	.	16g/JJ)	.
=36	=36	=36	=36
(8c/L	2.C\	(8e/L	.
8Bn/	.	8fn/	.
8B-X/	.	8g/	.
8G/	.	8e/	.
8A/	.	8f/	.
8B-/J)	.	8g/J)	.
*v	*v	*	*
=37	=37	=37
8cL 8F\	(16a/LL	.
.	16cc/)	.
8C\J	16b-'/	.
.	16g'/JJ	.
8r	(4g (4B-/	.
(<8C/	.	.
8F\)	8f 8A/))	.
8r	8r	.
!!LO:LB:g=original
=38:|!|:	=38:|!|:	=38:|!|:
*>D	*>D	*
8bb->/	(>16gLL 16e\	f
!	!LO:TX:b:t=M.G.:mod=m.g.	!
.	16cc\	.
!LO:TX:b:t=M.D.:mod=m.d.	!	!
8B-'\L	16g 16e\	.
.	16cc\JJ	.
8G'\	16gLL 16e\	.
.	16cc\	.
8E'\	16g 16e\	.
.	16cc\JJ	.
8C'\	16gLL 16e\	.
.	16cc\	.
8BB-'\J	16g 16e\	.
.	16cc\JJ)	.
=39	=39	=39
8.AA'/L	(<16aLL 16f/	.
.	16cc/	.
.	16a 16f/	.
16C'/Jk	16cc/JJ	.
2F^\	16aLL 16f/	.
.	16cc/	.
.	16a 16f/	.
.	16cc/JJ	.
.	16aLL 16f/	.
.	16cc/	.
.	16a 16f/	.
.	16cc/JJ)	.
!!LO:LB:g=original
=40	=40	=40
8.C'\L	(16b-LL 16g 16e/	.
.	16cc/	.
.	16b- 16g 16e/	.
16G'\Jk	16cc/JJ	.
2c^\	16b-LL 16g 16e/	.
.	16cc/	.
.	16b- 16g 16e/	.
.	16cc/JJ	.
.	16b-LL 16g 16e/	.
.	16cc/	.
.	16g 16e/	.
.	16cc/JJ)	.
=41	=41	=41
8.F'\L	(16aLL 16f/	.
.	16cc/	.
.	16a 16f/	.
16A'\Jk	16cc/JJ	.
2c^\	16aLL 16f/	.
.	16cc/	.
.	16a 16f/	.
.	16cc/JJ	.
.	16aLL 16f/	.
.	16cc/	.
.	16a 16f/	.
.	16cc/JJ)	.
*clefG2	*	*
=42	=42	=42
!LO:TX:b:t=M.G.:mod=m.g.	!LO:TX:a:t=M.D.:mod=m.d.	!
8c/L	4ee\	.
8cc/	.	.
8d/	8.ffT\L	<
8bn/	.	.
.	(32ee\LL	.
.	32ff\JJJ)	.
8e/	4gg\	.
8b-X/J	.	[
!!LO:LB:g=original
=43	=43	=43
!	!	!LO:MO:mod=!null:null
!	!	!LO:HP:t=dimin.
8f/L	(4aa\	>
8a/	.	.
8B-/	4ddd\	.
8g/	.	.
!	!	!LO:MO:mod=!null:null
!	!	!LO:HP:b=2
8Bn/	4ff^\)	>
8a-X/J	.	]]
=44	=44	=44
*^	*	*
!	!	!LO:TX:b:B:t=a tempo.:mod=	!
8c/L	2c\	(4.cc^\	.
8an 8f/	.	.	.
8a 8f/	.	.	.
8aJ 8f/	.	8ccc\)	.
8c/L	4ryy	(16ccc\LL	.
.	.	16bb-\)	.
8b-J 8g/	.	16gg'\	.
.	.	16ee'\JJ	.
*v	*v	*	*
=45	=45	=45
8aL 8f/	(16ff\LL	.
.	16aa\	.
8b-J 8g 8c/	16gg\	.
.	16ee\JJ)	.
8r	(4gg\	.
8b-L 8e 8c/	.	.
8aJ 8f/	8ff\)	.
8r	8r	.
!LO:TX:b:i:t=Da Capo al Fine.:mod=	!	!
!!LO:TX:a:B:t=:mod=Da Capo al Fine
=:|!	=:|!	=:|!
*-	*-	*-
!!!system-decoration: {(*)}
!!!RDF**kern: > = above
!!!RDF**kern: < = below
!!!filter-modern: sic -s | shed -k -e "s/LO:N:vis/LO:n:vis:/L" | shed -e "s/TX(.*):t=P:/tx$1:t=P:/LG" | shed -e "s/:rj/:RJ/L" | shed -k -e "s/([^a-gA-Gn#X-])[<>]/$1/g" | shed -e "s/LO:DY:(a|b|rj)/LO:dy:$1/L" | shed -e "s/-//B" | autostem -r | modori -m
!!!ENC: Berenika Jozajtis
!!!END: 2022-07-24
!!!EED: Andrzej Kubiczek
!!!EEV: 2022-08-22
!!!ENC-modern: Andrzej Borzym
!!!END-modern: 2022-08-30
